X: 11601
T: TELL HER I'LL LOVE HER
C: Shield.
Q: "Slow and gracefully."
%R: air, strathspey
B: W. Hamilton "Universal Tune-Book" Vol. 1 Glasgow 1844 p.160 #1
S: http://imslp.org/wiki/Hamilton's_Universal_Tune-Book_(Various)
Z: 2016 John Chambers <jc:trillian.mit.edu>
M: C
L: 1/16
K: Eb
%%slurgraces yes
%%graceslurs yes
% - - - - - - - - - - - - - - - - - - - - - - - - -
[|\
(G3A) B3c B2e2G2B2 | (c2B2)(A2G2) {G}F4 z2F2 |\
(G3A)(B3c) B2e2e3f | g4 Tf4 e4 z4 |]\
g4 e2g2 f2d2 (B2cd) | (e2c2)(A2e2) {e}d4 z2B2 |
c4 (B2A2) G4 (A2B2) | ca3{g}f3e {e}d4 z4 |\
(c2B2)A2G2 G2F2e2d2 | (c2B2)(A2G2) {B}A4 z2A2 |\
G3A B2a2 g2e2 z2A2 | (Ge)(Bc) E2{G}F>E E4 z4 |]\
g2f2 e4 f4 d2f2 |
e2c2 F3e {e}d4 z2B2 |\
c3=Bc2A2 G4 A2B2 | (c2a2)({g}f3e) {e}d4 z4 |\
c2B2(A2G2) G2F2e2d2 | c2B2A2G2 c6 d2 |\
e4 g4 Hb6 BA | (Ge)(Bc) {EF}G3(F>E) E4 z4 |]
% - - - - - - - - - - - - - - - - - - - - - - - - -

%%sep 1 1 500
%%sep 1 1 500

